X: 29939
T: O'Sullivan's March
R: jig
M: 6/8
K: Gmajor
D|:GBA ABd|edB A2 G|G/A/BA B2A|AGG G2D|
GBA ABd|edB A2 G|G/A/BA B2A|1 AGG G2 D:|2 AGG G2g||
|:e2g e2g|ege edB|ded dBd|dgB BAG|
cBc dcd|egB A2 G|G/A/BA B2A|1 AGG G2g:|2 AGG G2D||

